img/icon/prof-nav-5.svg

<svg width="24" height="24" viewBox="0 0 24 24" fill="none" xmlns="http://www.w3.org/2000/svg">
<path d="M10 13.173V17.75L12 16.75L14 17.75V13.173M18 21H6C4.343 21 3 19.657 3 18V6C3 4.343 4.343 3 6 3H18C19.657 3 21 4.343 21 6V18C21 19.657 19.657 21 18 21ZM15.75 10C15.75 12.0711 14.0711 13.75 12 13.75C9.92893 13.75 8.25 12.0711 8.25 10C8.25 7.92893 9.92893 6.25 12 6.25C14.0711 6.25 15.75 7.92893 15.75 10Z" stroke="#848E9F" stroke-width="1.5" stroke-linecap="round" stroke-linejoin="round"/>
</svg>

<svg width="24" height="24" fill="none" xmlns="http://www.w3.org/2000/svg"><path d="M10 13.173v4.577l2-1 2 1v-4.577M18 21H6a3 3 0 0 1-3-3V6a3 3 0 0 1 3-3h12a3 3 0 0 1 3 3v12a3 3 0 0 1-3 3zm-2.25-11a3.75 3.75 0 1 1-7.5 0 3.75 3.75 0 0 1 7.5 0z" stroke="#848E9F" stroke-width="1.5" stroke-linecap="round" stroke-linejoin="round"/></svg>
